X:372
T:Nina Wara
M:6/8
L:1/8
K:Em
P:2A (BC)2 2A
P:A
BAG EGA | BGe d2z | ece ged | BAG B2z | 
BAG EGA | BGe d2z | ged dBG | BAG E3 | 
BAG EGA | BGe d2z | ece ged | BAG B2z | 
BAG EGA | BGe d2z | ged dBG | BAG E3 || 
P:B
Bdd ded | B2 A G3 | egg gag | e2 d B3 | 
Bdd ded | B2 A G3 | EGA BAG | E3- E2z :| 
P:C
BAG d3 | BAG E3 | egg gag | e2 d B3 | 
BAG d3 | BAG E3 | EGA BAG | E3- E2z :| 

